X: 897
T: the Lakeside Road   #2
R: hornpipe
%S: s:5 b: 14(6+4+4)
B: Francis O'Neill: "The Dance Music of Ireland" (1907) #897
Z: Frank Nordberg - http: //www.musicaviva.com
F: http: //www.musicaviva.com/abc/tunes/ireland/oneill-1001/0897/oneill-1001-0897-1.abc
N: Compacted via repeats and multiple endings [JC]
M: 2/4
L: 1/16
K: G
(DF) "^A"\
|: G2GF GBdB | cdef gfge |[1,3 dBGB dBGB | ABcA GFED :|[2,4 dgec BcAF | G2GG G2 :|
"^B"\
|: (Bc) | d2Bd GdBd | e2ce Aece | d2Bd GdBd | AFDF AFDF ||
y8      | d2Bd GdBd | cdef gfge | dgdc BcAF | G2GG G2 :|
